images/icon-hero-theeth-2.svg

<svg width="56" height="56" viewBox="0 0 56 56" fill="none" xmlns="http://www.w3.org/2000/svg">
<path fill-rule="evenodd" clip-rule="evenodd" d="M18.2105 0.643802C16.0952 0.705599 15.8723 0.731302 15.3912 0.968208C14.2181 1.54593 13.6721 3.04196 14.2058 4.21665C14.3165 4.46044 14.6677 4.88788 14.9862 5.16646L15.5652 5.67308L15.4944 6.98974C15.4505 7.80688 15.2741 9.04424 15.0296 10.2509C14.5739 12.4996 14.5735 13.1614 15.0273 13.9358C15.582 14.8823 16.5776 15.1896 17.773 14.7831L18.4293 14.56L18.8121 14.9309C19.0226 15.1349 19.3779 15.378 19.6016 15.4712C20.4011 15.8043 21.7378 15.6073 22.5866 15.0313L23.0026 14.749L23.7784 15.1128C24.4668 15.4356 24.6592 15.4766 25.484 15.4766C26.334 15.4766 26.4682 15.4456 27.0501 15.116L27.6866 14.7553L27.8981 15.0243C28.0146 15.1723 28.3653 15.4207 28.6777 15.5763C29.6902 16.0809 30.8953 15.9197 31.7961 15.1593C32.0803 14.9193 32.1882 14.8846 32.3619 14.9776C32.4799 15.0408 32.8252 15.1458 33.1293 15.211C34.1153 15.4224 35.1861 14.9277 35.6319 14.0547C35.8692 13.5899 35.8896 12.7837 35.7064 11.0906C35.5051 9.22919 35.5379 7.45436 35.7941 6.34836C35.9065 5.86274 35.9831 5.73718 36.2043 5.6756C36.3538 5.63404 37.3867 5.59608 38.4996 5.59138C44.3478 5.56677 55.0903 5.3221 55.3433 5.20791C55.5512 5.11407 55.6249 4.98774 55.6504 4.6816C55.7137 3.92122 55.7755 3.9291 50.6911 4.0481C48.2268 4.10585 39.4496 4.20494 31.1863 4.26838C14.4355 4.39711 15.7982 4.45158 15.4585 3.63882C15.3198 3.30665 15.317 3.19027 15.4404 2.86608C15.5203 2.65619 15.7247 2.38068 15.8944 2.25391C16.1998 2.02597 16.2703 2.02346 22.2928 2.02346C26.1988 2.02346 29.5394 2.0823 31.609 2.18752C36.1544 2.41863 55.0491 2.36788 55.4254 2.12354C55.7192 1.93279 55.7655 1.30804 55.5022 1.0894C55.3665 0.976849 53.3467 0.953333 45.3576 0.97138C38.0676 0.987786 34.3078 0.950161 31.3902 0.831708C26.4263 0.63002 21.2198 0.555864 18.2105 0.643802ZM17.0509 5.75982C16.9059 5.79865 16.8642 6.05535 16.8092 7.25104C16.7638 8.2353 16.6347 9.20043 16.4036 10.2813C16.2171 11.1535 16.0557 12.1551 16.0452 12.5068C16.0278 13.0863 16.0554 13.1718 16.3383 13.4151C16.6889 13.7167 17.0173 13.6969 17.7413 13.3304C17.9646 13.2174 18.3307 13.125 18.5551 13.125C18.9041 13.125 19.0357 13.2038 19.4667 13.6701C19.7768 14.0056 20.0976 14.2408 20.3009 14.2813C20.7709 14.3754 21.4873 14.1537 22.12 13.7185C22.4265 13.5077 22.8006 13.3438 22.9752 13.3438C23.1461 13.3438 23.6375 13.5275 24.0675 13.7521C24.7055 14.0854 24.9646 14.1605 25.477 14.1605C26.0232 14.1605 26.1819 14.1073 26.6977 13.7521C27.5633 13.1559 27.9517 13.1827 28.6995 13.8899C29.5898 14.7318 30.1743 14.7563 31.0094 13.9865C31.62 13.4236 32.1389 13.3285 32.7888 13.6601C33.377 13.9601 33.9459 13.96 34.2462 13.6596C34.4609 13.4449 34.4724 13.3509 34.4098 12.3198C34.2369 9.47091 34.2145 7.86715 34.3349 6.96174C34.4046 6.4386 34.4899 5.93657 34.5246 5.84622C34.5794 5.70349 34.3529 5.68588 32.7976 5.71213L31.0074 5.74221L30.9743 6.83596C30.956 7.43752 31.0042 8.34807 31.0813 8.8594C31.1586 9.37072 31.2095 9.88752 31.1945 10.0078C31.1403 10.4433 30.5395 10.6482 30.1526 10.3633C29.8523 10.1421 29.6258 8.75505 29.6257 7.13674V5.68752H28.0105H26.3955L26.2901 7.23255C26.1935 8.64972 26.1637 8.79454 25.9316 8.98255C25.5975 9.25315 25.4182 9.24111 25.1042 8.9271C24.8569 8.6798 24.8462 8.61177 24.894 7.58726C24.9217 6.99357 24.9626 6.32332 24.985 6.09768L25.0257 5.68752H23.4501H21.8746L21.8726 6.53518C21.8707 7.35319 21.6293 9.39129 21.492 9.74916C21.4551 9.84508 21.3048 9.9783 21.1576 10.0453C20.8323 10.1937 20.3808 10.0247 20.2835 9.71832C20.2483 9.60741 20.3 8.89232 20.3984 8.12932C20.5016 7.32847 20.5466 6.5191 20.5047 6.21471L20.4322 5.68752L18.8292 5.70021C17.9475 5.70721 17.1473 5.734 17.0509 5.75982ZM7.79825 9.74566C6.4607 10.2598 5.35897 11.8266 5.35897 13.2146C5.35897 14.1491 5.62388 14.6916 6.45633 15.4624C8.65258 17.4958 11.5178 16.4635 12.049 13.4472C12.1821 12.6917 12.039 11.7031 11.702 11.0496C11.0205 9.72838 9.32031 9.1605 7.79825 9.74566ZM8.12375 11.1069C7.289 11.5229 6.67147 12.4457 6.67147 13.2771C6.67147 14.1586 8.08459 15.2773 9.06284 15.1701C9.68792 15.1016 10.0474 14.8192 10.428 14.0978C10.709 13.5649 10.7346 13.4273 10.6931 12.6765C10.6578 12.0396 10.5894 11.7641 10.4006 11.4991C9.88917 10.7808 9.0635 10.6386 8.12375 11.1069ZM40.237 12.1755C39.5748 12.4233 39.1831 12.7741 38.8823 13.3888C37.9594 15.2752 39.3588 17.7563 41.3433 17.7521C42.8287 17.7491 44.2893 16.3785 44.293 14.9844C44.2957 13.9808 43.4553 12.8227 42.3787 12.3465C41.7497 12.0682 40.7392 11.9876 40.237 12.1755ZM40.2996 13.7028C39.4375 14.4444 40.218 16.4043 41.3762 16.4058C42.0885 16.4068 42.9244 15.6502 42.9244 15.0043C42.9244 13.854 41.1479 12.9732 40.2996 13.7028ZM16.4605 17.8421C10.7687 18.5537 7.93103 23.6763 9.34908 30.6798C9.90864 33.4436 10.923 36.1254 12.7546 39.6835C14.4853 43.046 14.7358 43.7857 15.6974 48.3754C16.2987 51.2454 16.6261 52.412 17.1189 53.4393C17.5125 54.26 18.145 55.0007 18.6952 55.2851C19.5227 55.7131 20.7939 55.6271 21.3912 55.1026C22.4696 54.1557 22.8467 52.7443 23.46 47.3594C24.1454 41.3408 24.7136 39.4637 25.6623 40.0852C26.3595 40.5422 26.7333 42.2203 27.3427 47.6328C27.8545 52.1769 28.2541 53.8507 29.0493 54.7797C30.026 55.9207 31.9959 55.7803 33.0062 54.4975C33.8218 53.462 34.2527 52.2091 35.0062 48.6818C36.009 43.9869 36.334 42.9356 37.422 40.8662C39.6841 36.5636 40.8523 33.5755 41.4739 30.5007C41.6828 29.4672 41.7248 28.9169 41.7233 27.2344C41.7209 24.8135 41.5514 24.0044 40.6694 22.2063C39.4333 19.6866 37.1976 18.2016 34.0796 17.8293C32.1429 17.598 30.1026 17.959 27.8113 18.9379C26.8923 19.3305 26.6108 19.3996 25.7465 19.4448C24.5867 19.5054 23.9357 19.3781 22.7473 18.858C21.57 18.3428 20.2037 17.9706 18.9943 17.8357C17.8202 17.7048 17.5541 17.7054 16.4605 17.8421ZM16.0777 19.3065C12.7046 19.9956 10.7754 22.2902 10.3747 26.0895C10.0054 29.5912 11.3823 34.4037 14.2657 39.6897C15.5715 42.0836 16.049 43.5246 16.9552 47.8089C17.8378 51.9807 18.2905 53.2682 19.0888 53.8771C19.5707 54.2447 20.3124 54.3014 20.6494 53.9966C21.2259 53.4749 21.5974 51.7227 22.1462 46.9388C22.3624 45.0532 22.6148 43.1127 22.707 42.6265C23.1876 40.0931 23.9741 38.7977 25.1252 38.6434C26.338 38.4808 27.2457 39.4123 27.7766 41.3647C28.0725 42.4529 28.2615 43.7136 28.6585 47.25C29.1886 51.9713 29.6587 53.8774 30.3588 54.1436C30.9923 54.3844 31.7786 53.9983 32.2683 53.206C32.6775 52.5439 33.1201 51.0386 33.6906 48.3687C34.7696 43.3192 35.0042 42.6087 36.6419 39.4297C38.9516 34.9459 40.0187 31.8909 40.3625 28.7775C40.8066 24.7553 39.4928 21.4524 36.9137 20.107C35.4883 19.3634 34.7275 19.194 32.8668 19.2055C30.9877 19.2171 30.2687 19.3687 28.4773 20.1311C27.5725 20.5163 26.265 20.8605 25.5933 20.8903C25.2993 20.9033 25.8241 21.216 26.4413 21.3955C27.2257 21.6236 27.4596 22.0869 27.0152 22.5313C26.4937 23.0528 25.4518 22.6824 24.2137 21.5354C23.1345 20.5355 22.6629 20.2378 21.4671 19.8014C19.7327 19.1683 17.6773 18.9796 16.0777 19.3065ZM3.68597 20.7137C2.43767 21.0604 1.68419 22.6025 2.07728 24.0061C2.45277 25.3473 4.14666 26.2652 5.60211 25.9161C6.30649 25.747 7.10164 25.0027 7.30344 24.3233C7.74728 22.8287 7.12767 21.4061 5.79056 20.85C5.21077 20.6088 4.28042 20.5486 3.68597 20.7137ZM3.67131 22.2403C3.53055 22.381 3.38081 22.7005 3.3387 22.9503C3.18295 23.8719 3.88722 24.6094 4.92278 24.6094C5.54655 24.6094 5.86428 24.3909 6.02616 23.8503C6.34706 22.7794 5.69081 21.9844 4.48616 21.9844C4.04592 21.9844 3.87278 22.0388 3.67131 22.2403ZM45.719 23.4336C44.8628 23.8696 44.4643 25.1739 44.8817 26.1732C45.0704 26.6247 45.6936 27.1731 46.2127 27.3445C46.8513 27.5552 47.8147 27.4391 48.2626 27.0977C48.9207 26.5956 49.2264 25.6708 49.0055 24.8501C48.6417 23.4989 46.9892 22.7868 45.719 23.4336ZM46.2254 24.7307C45.8525 25.2631 46.1128 25.9339 46.7547 26.095C47.2347 26.2156 47.5628 26.064 47.6654 25.6744C47.8385 25.0173 47.5568 24.6297 46.8355 24.5331C46.4714 24.4842 46.3766 24.5149 46.2254 24.7307Z" fill="#1E84B5"/>
</svg>

<svg xmlns="http://www.w3.org/2000/svg" width="56" height="56" fill="none" viewBox="0 0 56 56"><path fill="#1e84b5" fill-rule="evenodd" d="M18.21.644c-2.115.062-2.338.087-2.819.324-1.173.578-1.719 2.074-1.185 3.249.11.243.462.67.78.95l.58.506-.072 1.317c-.043.817-.22 2.054-.464 3.26-.456 2.25-.457 2.911-.003 3.686.555.946 1.55 1.254 2.746.847l.656-.223.383.37c.21.205.566.448.79.541.8.333 2.136.136 2.985-.44l.416-.282.775.364c.689.323.881.364 1.706.364.85 0 .984-.031 1.566-.361l.637-.36.211.268c.117.148.467.397.78.552 1.012.505 2.217.344 3.118-.417.284-.24.392-.274.566-.181.118.063.463.168.767.233.986.211 2.057-.283 2.503-1.156.237-.465.258-1.271.074-2.964-.2-1.862-.168-3.637.088-4.743.113-.485.19-.61.41-.672.15-.042 1.183-.08 2.296-.085 5.848-.024 16.59-.269 16.843-.383.208-.094.282-.22.307-.526.064-.76.126-.753-4.959-.634-2.464.058-11.241.157-19.505.22-16.75.13-15.388.184-15.727-.63-.14-.331-.142-.448-.019-.772.08-.21.285-.485.454-.612.306-.228.376-.23 6.399-.23 3.906 0 7.246.058 9.316.164 4.545.23 23.44.18 23.816-.064.294-.191.34-.816.077-1.035-.136-.112-2.155-.136-10.144-.118-7.29.017-11.05-.02-13.968-.14C26.426.63 21.22.557 18.21.645M17.05 5.76c-.144.039-.186.295-.24 1.491a18 18 0 0 1-.406 3.03c-.187.872-.348 1.874-.359 2.226-.017.58.01.665.293.908.35.302.68.282 1.403-.085.224-.113.59-.205.814-.205.35 0 .48.079.912.545.31.336.63.57.834.611.47.094 1.186-.127 1.819-.562.306-.211.68-.375.855-.375.171 0 .662.184 1.092.408.639.333.898.409 1.41.409.546 0 .705-.054 1.22-.409.866-.596 1.255-.57 2.003.138.89.842 1.474.866 2.31.096.61-.562 1.129-.658 1.779-.326.588.3 1.157.3 1.457 0 .215-.215.226-.31.164-1.34-.173-2.85-.195-4.453-.075-5.358.07-.523.155-1.025.19-1.116.054-.143-.172-.16-1.727-.134l-1.79.03-.034 1.094c-.018.602.03 1.512.107 2.023.078.512.128 1.029.114 1.149-.055.435-.655.64-1.042.355-.3-.22-.527-1.608-.527-3.226v-1.45h-3.231l-.105 1.546c-.096 1.417-.126 1.562-.358 1.75-.334.27-.514.258-.828-.056-.247-.247-.258-.315-.21-1.34.028-.593.069-1.264.091-1.49l.04-.41h-3.15l-.002.848c-.002.818-.244 2.856-.381 3.214-.037.096-.187.23-.334.296-.326.149-.777-.02-.875-.327-.035-.11.017-.826.115-1.589.104-.8.149-1.61.107-1.914l-.073-.527-1.603.012c-.881.007-1.682.034-1.778.06M7.799 9.746c-1.337.514-2.439 2.08-2.439 3.469 0 .934.265 1.477 1.097 2.247 2.197 2.034 5.062 1.002 5.593-2.015.133-.755-.01-1.744-.347-2.397-.681-1.322-2.382-1.89-3.904-1.304m.326 1.36c-.835.417-1.453 1.34-1.453 2.171 0 .882 1.414 2 2.392 1.893.625-.068.984-.35 1.365-1.072.281-.533.307-.67.265-1.421-.035-.637-.104-.913-.292-1.178-.512-.718-1.338-.86-2.277-.392m32.113 1.07c-.662.247-1.054.598-1.355 1.213-.923 1.886.477 4.367 2.461 4.363 1.486-.003 2.946-1.373 2.95-2.768.003-1.003-.838-2.161-1.914-2.637-.63-.279-1.64-.36-2.142-.171m.063 1.527c-.862.741-.082 2.701 1.076 2.703.713 0 1.548-.756 1.548-1.402 0-1.15-1.776-2.03-2.624-1.301m-23.84 4.14c-5.691.71-8.529 5.833-7.11 12.837.559 2.764 1.573 5.445 3.405 9.004 1.73 3.362 1.98 4.102 2.942 8.691.602 2.87.93 4.037 1.422 5.064.393.821 1.026 1.562 1.576 1.846.828.428 2.099.342 2.696-.182 1.079-.947 1.456-2.359 2.069-7.744.685-6.018 1.254-7.895 2.202-7.274.698.457 1.071 2.135 1.68 7.548.513 4.544.912 6.218 1.707 7.147.977 1.14 2.947 1 3.957-.282.816-1.036 1.247-2.289 2-5.816 1.003-4.695 1.328-5.746 2.416-7.816 2.262-4.302 3.43-7.29 4.052-10.365.209-1.034.25-1.584.25-3.267-.003-2.42-.173-3.23-1.055-5.028-1.236-2.52-3.471-4.004-6.59-4.377-1.936-.231-3.976.13-6.268 1.109-.919.393-1.2.462-2.064.507-1.16.06-1.811-.067-3-.587a13.5 13.5 0 0 0-3.753-1.022c-1.174-.131-1.44-.13-2.533.006m-.382 1.463c-3.373.69-5.303 2.984-5.703 6.784-.37 3.501 1.007 8.314 3.89 13.6 1.306 2.394 1.784 3.835 2.69 8.119.883 4.172 1.336 5.46 2.134 6.068.482.368 1.223.424 1.56.12.577-.522.948-2.274 1.497-7.058.216-1.886.469-3.826.561-4.312.48-2.534 1.267-3.83 2.418-3.984 1.213-.162 2.12.77 2.652 2.722.296 1.088.485 2.349.881 5.885.53 4.721 1 6.627 1.7 6.894.634.24 1.42-.146 1.91-.938.41-.662.852-2.167 1.423-4.837 1.079-5.05 1.313-5.76 2.95-8.94 2.31-4.483 3.378-7.538 3.721-10.652.445-4.022-.87-7.325-3.448-8.67-1.426-.744-2.187-.913-4.047-.901-1.88.011-2.598.163-4.39.925-.904.385-2.212.73-2.884.76-.294.012.231.325.848.505.785.228 1.019.69.574 1.135-.521.522-1.563.151-2.801-.996-1.08-1-1.551-1.297-2.747-1.734-1.734-.633-3.79-.821-5.39-.494M3.686 20.715c-1.248.346-2.002 1.889-1.609 3.292.376 1.341 2.07 2.26 3.525 1.91.704-.169 1.5-.913 1.701-1.593.444-1.494-.175-2.917-1.512-3.473-.58-.241-1.51-.301-2.105-.136m-.015 1.526c-.14.141-.29.46-.332.71-.156.922.548 1.66 1.584 1.66.624 0 .941-.22 1.103-.76.321-1.07-.335-1.866-1.54-1.866-.44 0-.613.055-.815.256m42.048 1.194c-.856.436-1.255 1.74-.837 2.74.188.45.812 1 1.33 1.17.64.211 1.603.095 2.05-.246.659-.502.964-1.427.743-2.248-.363-1.351-2.016-2.063-3.286-1.416m.506 1.297c-.373.532-.112 1.203.53 1.364.48.12.808-.031.91-.42.174-.658-.108-1.045-.83-1.142-.364-.049-.458-.018-.61.198" clip-rule="evenodd"/></svg>
